src/assets/cards/3C.svg

<svg clip-rule="evenodd" fill-rule="evenodd" stroke-linejoin="round" stroke-miterlimit="2" viewBox="0 0 934 1300" xmlns="http://www.w3.org/2000/svg"><g fill-rule="nonzero"><path d="m435.79 769.927c12.144-24.355 20.999-49.339 22.559-76.061 1.434-9.829-4.511-9.997-5.397-3.069-17.204 65.747-108.665 47.944-105.502-13.903 2.53-50.158 52.372-60.948 78.346-44.545 10.247 6.038 9.699 2.42 4.091-3.846-38.625-43.061-15.223-98.511 36.938-99.527 56.42 3.348 71.052 62.703 36.432 97.613-4.301 4.191-13.83 17.672.549 8.248 34.914-24.828 83.406 1.868 82.436 40.147-1.813 70.583-87.876 75.846-106.261 16.892-1.771-6.54-6.873-9.821-5.482 1.282 2.573 20.097 7.844 50.402 22.939 76.769z"/><path d="m435.537 354.911c12.144-24.356 20.999-49.34 22.559-76.061 1.434-9.83-4.554-9.994-5.439-3.07-17.204 65.751-108.623 47.944-105.502-13.903 2.572-50.153 52.371-60.944 78.388-44.545 10.247 6.043 9.657 2.42 4.091-3.846-38.625-43.056-15.265-98.51 36.938-99.522 56.377 3.343 71.052 62.698 36.432 97.608-4.301 4.196-13.83 17.672.506 8.248 34.957-24.828 83.449 1.868 82.479 40.147-1.855 70.584-87.876 75.846-106.303 16.892-1.771-6.536-6.873-9.82-5.44 1.282 2.53 20.101 7.801 50.402 22.939 76.77z"/><path d="m497.523 945.089c-12.144 24.352-20.957 49.34-22.518 76.061-1.475 9.83 4.512 9.99 5.398 3.07 17.204-65.751 108.664-47.948 105.502 13.9-2.53 50.16-52.372 60.95-78.347 44.54-10.246-6.04-9.698-2.42-4.09 3.85 38.583 43.06 15.223 98.51-36.938 99.53-56.42-3.35-71.052-62.71-36.433-97.62 4.302-4.19 13.831-17.67-.548-8.24-34.956 24.82-83.448-1.87-82.436-40.15 1.813-70.585 87.876-75.847 106.261-16.89 1.771 6.54 6.873 9.82 5.481-1.28-2.572-20.1-7.843-50.408-22.938-76.771z"/><path d="m60.831 313.837c4.969-10.209 9.812-19.713 12.485-30.903 1.753-10.552-1.837-6.631-3.884.284-3.006 9.595-11.357 13.963-19.124 14.067-14.071.192-21.086-10.873-20.669-22.773-1.503-12.519 11.149-21.379 20.753-20.694 7.182.513 13.445 4.392 17.245 7.411 2.464 1.316 5.136 1.896 1.42-1.499-6.974-7.653-12.819-12.376-12.694-23.846.125-10.765 9.311-21.997 21.504-21.642 15.241.438 22.172 12.067 22.172 22.882-.041 7.887-4.008 15.145-10.105 19.638-3.925 3.198-2.797 5.595 1.671 2.567 4.342-3.724 9.478-5.357 14.823-5.47 14.573-.229 20.251 12.364 19.416 24.068-.793 10.965-10.105 22.248-22.422 20.97-10.982-1.257-16.744-10.481-20.043-19.947-1.128-2.902-2.84-3.682-2.798.639 2.547 21.12 10.439 34.261 10.481 34.248z"/><path d="m36.19 163.785 10.613-7.665c9.232 14.727 19.531 24.424 35.274 22.756 23.646-1.594 33.43-25.917 28.488-44.257-4.779-16.445-24.361-24.461-39.916-15.68-3.663 2.07-7.903 4.629-7.903 4.629l-5.544-9.032 36.516-42.475h-39.627v17.575h-15.204v-31.511h77.461v10.687s-20.748 21.125-27.622 32.703c16.897.615 30.52 11.127 35.387 27.748 2.86 8.743 1.58 28.752-2.158 37.369-6.222 14.376-23.257 26.03-38.837 26.707-26.129 1.731-40.003-16.257-46.928-29.554z"/><path d="m871.52 986.163c-4.969 10.209-9.812 19.717-12.485 30.907-1.753 10.55 1.838 6.63 3.884-.29 3.006-9.59 11.357-13.96 19.124-14.06 14.071-.2 21.086 10.87 20.669 22.77 1.503 12.52-11.149 21.38-20.753 20.69-7.182-.51-13.445-4.39-17.245-7.41-2.463-1.32-5.136-1.89-1.419 1.5 6.973 7.65 12.818 12.38 12.693 23.85-.125 10.76-9.311 21.99-21.504 21.64-15.241-.44-22.172-12.07-22.172-22.88.042-7.89 4.008-15.15 10.105-19.64 3.925-3.2 2.797-5.6-1.671-2.57-4.342 3.72-9.478 5.36-14.823 5.47-14.572.23-20.251-12.36-19.416-24.07.793-10.96 10.105-22.245 22.423-20.97 10.981 1.26 16.744 10.48 20.042 19.95 1.128 2.9 2.84 3.68 2.798-.64-2.547-21.119-10.439-34.26-10.481-34.247z"/><path d="m895.91 1136.21-10.625 7.67c-9.22-14.72-19.518-24.42-35.261-22.76-23.646 1.6-33.431 25.92-28.488 44.27 4.779 16.44 24.36 24.45 39.915 15.67 3.663-2.07 7.903-4.23 7.903-4.23l6.561 8.47-37.533 42.64h39.628v-17.58h15.203v31.52h-77.46v-10.69s20.748-21.13 27.61-32.7c-16.885-.62-30.508-11.12-35.375-27.75-2.86-8.75-1.581-28.75 2.145-37.36 6.234-14.39 23.269-26.04 38.849-26.72 26.117-1.73 40.004 16.26 46.928 29.55z"/></g></svg>

<?xml version="1.0" encoding="UTF-8" standalone="no"?>
<!DOCTYPE svg PUBLIC "-//W3C//DTD SVG 1.1//EN" "http://www.w3.org/Graphics/SVG/1.1/DTD/svg11.dtd">
<svg width="100%" height="100%" viewBox="0 0 934 1300" version="1.1" xmlns="http://www.w3.org/2000/svg" xmlns:xlink="http://www.w3.org/1999/xlink" xml:space="preserve" xmlns:serif="http://www.serif.com/" style="fill-rule:evenodd;clip-rule:evenodd;stroke-linejoin:round;stroke-miterlimit:2;">
    <g>
        <g id="path3255">
            <path d="M435.79,769.927C447.934,745.572 456.789,720.588 458.349,693.866C459.783,684.037 453.838,683.869 452.952,690.797C435.748,756.544 344.287,738.741 347.45,676.894C349.98,626.736 399.822,615.946 425.796,632.349C436.043,638.387 435.495,634.769 429.887,628.503C391.262,585.442 414.664,529.992 466.825,528.976C523.245,532.324 537.877,591.679 503.257,626.589C498.956,630.78 489.427,644.261 503.806,634.837C538.72,610.009 587.212,636.705 586.242,674.984C584.429,745.567 498.366,750.83 479.981,691.876C478.21,685.336 473.108,682.055 474.499,693.158C477.072,713.255 482.343,743.56 497.438,769.927L435.79,769.927Z" style="fill-rule:nonzero;"/>
        </g>
        <g id="path3257">
            <path d="M435.537,354.911C447.681,330.555 456.536,305.571 458.096,278.85C459.53,269.02 453.542,268.856 452.657,275.78C435.453,341.531 344.034,323.724 347.155,261.877C349.727,211.724 399.526,200.933 425.543,217.332C435.79,223.375 435.2,219.752 429.634,213.486C391.009,170.43 414.369,114.976 466.572,113.964C522.949,117.307 537.624,176.662 503.004,211.572C498.703,215.768 489.174,229.244 503.51,219.82C538.467,194.992 586.959,221.688 585.989,259.967C584.134,330.551 498.113,335.813 479.686,276.859C477.915,270.323 472.813,267.039 474.246,278.141C476.776,298.242 482.047,328.543 497.185,354.911L435.537,354.911Z" style="fill-rule:nonzero;"/>
        </g>
        <g id="path3405">
            <path d="M497.523,945.089C485.379,969.441 476.566,994.429 475.005,1021.15C473.53,1030.98 479.517,1031.14 480.403,1024.22C497.607,958.469 589.067,976.272 585.905,1038.12C583.375,1088.28 533.533,1099.07 507.558,1082.66C497.312,1076.62 497.86,1080.24 503.468,1086.51C542.051,1129.57 518.691,1185.02 466.53,1186.04C410.11,1182.69 395.478,1123.33 430.097,1088.42C434.399,1084.23 443.928,1070.75 429.549,1080.18C394.593,1105 346.101,1078.31 347.113,1040.03C348.926,969.445 434.989,964.183 453.374,1023.14C455.145,1029.68 460.247,1032.96 458.855,1021.86C456.283,1001.76 451.012,971.452 435.917,945.089L497.523,945.089Z" style="fill-rule:nonzero;"/>
        </g>
        <g id="path3456">
            <path d="M60.831,313.837C65.8,303.628 70.643,294.124 73.316,282.934C75.069,272.382 71.479,276.303 69.432,283.218C66.426,292.813 58.075,297.181 50.308,297.285C36.237,297.477 29.222,286.412 29.639,274.512C28.136,261.993 40.788,253.133 50.392,253.818C57.574,254.331 63.837,258.21 67.637,261.229C70.101,262.545 72.773,263.125 69.057,259.73C62.083,252.077 56.238,247.354 56.363,235.884C56.488,225.119 65.674,213.887 77.867,214.242C93.108,214.68 100.039,226.309 100.039,237.124C99.998,245.011 96.031,252.269 89.934,256.762C86.009,259.96 87.137,262.357 91.605,259.329C95.947,255.605 101.083,253.972 106.428,253.859C121.001,253.63 126.679,266.223 125.844,277.927C125.051,288.892 115.739,300.175 103.422,298.897C92.44,297.64 86.678,288.416 83.379,278.95C82.251,276.048 80.539,275.268 80.581,279.589C83.128,300.709 91.02,313.85 91.062,313.837L60.831,313.837Z" style="fill-rule:nonzero;"/>
        </g>
        <g id="path7102">
            <path d="M36.19,163.785L46.803,156.12C56.035,170.847 66.334,180.544 82.077,178.876C105.723,177.282 115.507,152.959 110.565,134.619C105.786,118.174 86.204,110.158 70.649,118.939C66.986,121.009 62.746,123.568 62.746,123.568L57.202,114.536L93.718,72.061L54.091,72.061L54.091,89.636L38.887,89.636L38.887,58.125L116.348,58.125L116.348,68.812C116.348,68.812 95.6,89.937 88.726,101.515C105.623,102.13 119.246,112.642 124.113,129.263C126.973,138.006 125.693,158.015 121.955,166.632C115.733,181.008 98.698,192.662 83.118,193.339C56.989,195.07 43.115,177.082 36.19,163.785Z" style="fill-rule:nonzero;"/>
        </g>
        <g id="path34561" serif:id="path3456">
            <path d="M871.52,986.163C866.551,996.372 861.708,1005.88 859.035,1017.07C857.282,1027.62 860.873,1023.7 862.919,1016.78C865.925,1007.19 874.276,1002.82 882.043,1002.72C896.114,1002.52 903.129,1013.59 902.712,1025.49C904.215,1038.01 891.563,1046.87 881.959,1046.18C874.777,1045.67 868.514,1041.79 864.714,1038.77C862.251,1037.45 859.578,1036.88 863.295,1040.27C870.268,1047.92 876.113,1052.65 875.988,1064.12C875.863,1074.88 866.677,1086.11 854.484,1085.76C839.243,1085.32 832.312,1073.69 832.312,1062.88C832.354,1054.99 836.32,1047.73 842.417,1043.24C846.342,1040.04 845.214,1037.64 840.746,1040.67C836.404,1044.39 831.268,1046.03 825.923,1046.14C811.351,1046.37 805.672,1033.78 806.507,1022.07C807.3,1011.11 816.612,999.825 828.93,1001.1C839.911,1002.36 845.674,1011.58 848.972,1021.05C850.1,1023.95 851.812,1024.73 851.77,1020.41C849.223,999.291 841.331,986.15 841.289,986.163L871.52,986.163Z" style="fill-rule:nonzero;"/>
        </g>
        <g id="path7118">
            <path d="M895.91,1136.21L885.285,1143.88C876.065,1129.16 865.767,1119.46 850.024,1121.12C826.378,1122.72 816.593,1147.04 821.536,1165.39C826.315,1181.83 845.896,1189.84 861.451,1181.06C865.114,1178.99 869.354,1176.83 869.354,1176.83L875.915,1185.3L838.382,1227.94L878.01,1227.94L878.01,1210.36L893.213,1210.36L893.213,1241.88L815.753,1241.88L815.753,1231.19C815.753,1231.19 836.501,1210.06 843.363,1198.49C826.478,1197.87 812.855,1187.37 807.988,1170.74C805.128,1161.99 806.407,1141.99 810.133,1133.38C816.367,1118.99 833.402,1107.34 848.982,1106.66C875.099,1104.93 888.986,1122.92 895.91,1136.21Z" style="fill-rule:nonzero;"/>
        </g>
    </g>
</svg>
